X:1
T:Title
%%score { ( 1 3 ) | 2 }
L:1/8
Q:1/4=84
M:6/8
K:Ab
V:1 treble nm="Grand Piano"
V:3 treble 
V:2 bass 
V:1
 EFC EFC | EFC DDD | GBG FAF | EGD CCC | z3 E3 | z3 F3 | z3 .[Ec]3 | [CA]6[K:bass] | z3 .[Ec]3 | %9
w: Howard~E.~Smith * * * * *|||||||||
 [Gd]3 z3 | z3 .[Fd]3 | [Fc]3 z3 | [Ac][Gc][Fc] [Ec][Fc][Ac] | z3 .[Fd]3 | z3 .c3 | %15
w: ||||||
 [CA]6[K:bass] |] %16
w: |
V:2
 A,,[E,A,C][E,A,] C,[E,A,C][E,A,] | A,,[E,A,C][E,A,] B,,[E,G,][E,G,] | %2
 E,,[E,G,D][E,G,D] B,,[E,G,D][E,G,D] | E,,[E,G,D][E,G,] A,,[E,A,][E,A,] | %4
 A,,[E,A,C][E,A,] A,,[E,A,][E,A,] | D,[F,A,D][F,A,] D,[F,A,][F,A,] | E,G,G, E,,E,[E,G,D] | %7
 [A,,A,]E,,C,, .A,,,3 | A,,[E,A,C][E,A,C] E,,E,[E,A,C] | B,,E,E, E,,E,E, | %10
 B,,[E,G,D][E,G,D] E,,E,[E,G,D] | A,,E,E, E,,E,E, | A,,[E,A,C][E,A,C] C,[E,A,C][E,A,C] | %13
 D,[F,A,D][F,A,D] D,F,F, | E,[G,B,D][G,B,D] E,,E,[E,G,] | [A,,A,]E,,C,, .A,,,3 |] %16
V:3
 x6 | x6 | x6 | x6 | EFC z CC | FGD z DD | E[B,DG][B,DA] z G,B | z[K:bass] E,C, .A,,3 | %8
 [Ac][Gc][Fc] z [A,C][Ac] | z [G,D][G,D] D[G,D][G,D] | [Bd][Ad][Gd] z [G,D][Gd] | %11
 z [A,C][A,C] C[A,C][A,C] | x6 | [Gd][Fd][=Ed] z [A,D][A,DF] | EGA z G,B | z[K:bass] E,C, .A,,3 |] %16

